X:14519
T:Rory O'More,bass part. JNu.19
M:6/8
Q:90
S:James Nuttall MS,c1830,Rossendale,East Lancs.
R:Jig
O:England
A:East Lancashire
Z:Chris Partington
K:A
"thirdo,read as bass clef"z|fff f2f|ffff2f|fgf edc|c2cc2F|!
F2FF2F|F2FB2B|ccc dcc|fcAF2::!
z|F3F3|B3F3|FFFF2F|F2FF2z:|]
